X:1
T:Title
%%score { ( 1 4 ) | ( 2 3 ) }
L:1/8
M:6/8
K:Ab
V:1 treble nm="Grand Piano"
V:4 treble 
V:2 bass 
V:3 bass 
V:1
 z3 z2[Q:1/4=93] E | [CE]3 E[=DF][_DG] | [CA]3 [B,G]2 A | [FB]3 [FA]2 F | [CE]3- [CE]2 A | %5
 [CA]3 [B,G]2 B | [DB]3 [CA]2 A | [=DA]3- [DA]Bc | [DB]3- [DB]2 E | [CE]3 E[=DF][_DG] | %10
 [CA]3 [B,G]2 A | [FB]3 c2 F | [Fd]6 | [Fc]3 [FB]2 F | [EB]3 [EA]2 C | z3 DFG | %16
[M:5/8] [CA]-[CA]- [CA]3 |[M:1/8] E |[M:3/4] [Ec]>[DB] [CA]C EG | F4 z2 | [Ec]>[DB] [CA]C E=E | %21
 F6 | [DF][DG] [D=A][DB] [DF][Fd] | [Fc]3 [FB]2 [FA] | AG Ac B[=DF] |[M:5/8] B-B- B3 |[M:1/8] E | %27
[M:3/4] [Ec]>[DB] [CA]C EG | F4 z2 | [Ec]>[DB] [CA]C E=E | F6 | [DF][DG] [D=A][DB] [DF][Fd] | %32
 [Fc]3 [FB]2 [FA] |[M:13/16] [Ae][Ac][EA][=DA][Dc]3/2B |[M:5/8] A-A- A3 |] %35
V:2
 z3 z2 C | A,,C,E, G,F,E, | A,,C,E, A,2 C | D,F,A, D2 D | A,,C,E, A,2 C | E,,G,,B,, E,2 D | %6
 F,,A,,C, F,2 E | z3 .B,3 | E,G,B, E,2 D | A,,C,E, G,F,E, | A,,C,E, A,2 C | D,F,B, .[F,=A,F]3 | %12
 B,,D,F, B,2 F | D,F,B, D2 D | C,E,A, C2 A, | [E,A,C]3 E,-[E,-A,D][E,B,D] |[M:5/8] A,E,C, A,,2 | %17
[M:1/8] E, |[M:3/4] [A,,A,]>[A,,A,] [A,,E,]C, E,G, | z [B,,B,] [B,,B,] [E,G,B,]2 E, | %20
 [A,,A,]>[A,,A,] [A,,E,]C, E,=E, | F,3 F,3 | [B,,F,][B,,G,] [B,,=A,][B,,B,] [B,,F,][B,,B,] | %23
 [C,=A,]3 [D,B,]2 [=D,_C] | [E,CE][E,B,E] [E,CE][E,A,E] [F,A,=D][B,,A,] | %25
[M:5/8] [E,G,D]-[E,G,D]- [E,G,D]3 |[M:1/8] E, |[M:3/4] [A,,A,]>[A,,A,] [A,,E,]C, E,G, | %28
 z [B,,B,] [B,,B,] [E,G,B,]2 E, | [A,,A,]>[A,,A,] [A,,E,]C, E,=E, | F,3 F,3 | %31
 [B,,F,][B,,G,] [B,,=A,][B,,B,] [B,,F,][B,,B,] | [C,=A,]3 [D,B,]2 [=D,_C] | %33
[M:13/16] [E,C][E,E][E,C][F,B,][B,,A,]3/2[E,G,D] |[M:5/8] [E,A,C]-[E,A,C]- [E,A,C]3 |] %35
V:3
 x6 | x6 | x6 | x6 | x6 | x6 | x6 | B,,=D,F, z =DD | x6 | x6 | x6 | x6 | x6 | x6 | x6 | z3 .G,3 | %16
[M:5/8] x5 |[M:1/8] x |[M:3/4] x6 | F,4 z2 | x6 | z [D,A,] [D,A,][C,A,] [C,A,][C,A,] | x6 | x6 | %24
 x6 |[M:5/8] x5 |[M:1/8] x |[M:3/4] x6 | F,4 z2 | x6 | z [D,A,] [D,A,][C,A,] [C,A,][C,A,] | x6 | %32
 x6 |[M:13/16] x13/2 |[M:5/8] x5 |] %35
V:4
 x6 | x6 | x6 | x6 | x6 | x6 | x6 | x6 | x6 | x6 | x6 | x6 | x6 | x6 | x6 | .E6 |[M:5/8] x5 | %17
[M:1/8] x |[M:3/4] x6 | z D D E2 E | x6 | z D DE EE | x6 | x6 | x6 |[M:5/8] x5 |[M:1/8] x | %27
[M:3/4] x6 | z D D E2 E | x6 | z D DE EE | x6 | x6 |[M:13/16] x13/2 |[M:5/8] x5 |] %35

